X:21010
T:BELLES OF LISCARROLL, The  
B:DMI.0339
Z:Nordberg/Black
N:I have opted to treat this near-relative of 
"Walls of Liscarroll" as a modal tune. To hear
what the source version sounds like, replace
G with D in the K: field.
R:jig
%Q:1/4=160
M:6/8
L:1/8
K:G
"D modal"
c2c dfd|ecA GED|c2c dAF|GEE GAB|
c2c dfd|ecA ABc|d^cA GEA|1 DED DFA:|\
[2 DED dAG||
F2F DGG|DFA GFE|DFF DFA|BGE EAG|
F2F G2G|AGA fdf|ecA GEA|1 DFA dAG:|\
[2 DED D2c||
d2d DFA|G2G EFA|Bcd DFA|BGE EFA|
dfd cec|BdB AFD|DFA DdB|ABG FED:|

%%%

